X:1
T:Jimmy Whelan
M:4/4
L:1/4
K:D
 A,| D3/2 D/2D/2 E/2 F| E3/2 D/2 E F| G3/2 G/2 F E| F2 z A| B A d/2d/2 B|\
 B AF/2-E/2 D| E3/2 D/2 B, A,| B,2 z||
